src/renderer/assets/images/default.svg

<?xml version="1.0" encoding="UTF-8"?>
<svg width="17px" height="21px" viewBox="0 0 17 21" version="1.1" xmlns="http://www.w3.org/2000/svg" xmlns:xlink="http://www.w3.org/1999/xlink">
    <!-- Generator: Sketch 49.2 (51160) - http://www.bohemiancoding.com/sketch -->
    <title>default</title>
    <desc>Created with Sketch.</desc>
    <defs></defs>
    <g id="Page-1" stroke="none" stroke-width="1" fill="none" fill-rule="evenodd">
        <g id="default" transform="translate(-31.000000, -4.000000)" fill-rule="nonzero">
            <rect id="Rectangle-path" fill-opacity="0" fill="#000000" x="0" y="0" width="50" height="43"></rect>
            <path d="M40.52,22.609 L42.266,21.574 L41.451,19.553 L41.903,19.145 C42.2027007,18.8737179 42.4734803,18.5721068 42.711,18.245 L43.068,17.754 L45.168,18.344 L45.796,16.564 L43.785,15.71 L43.815,15.104 C43.8353987,14.7001686 43.8136141,14.2953109 43.75,13.896 L43.65,13.296 L45.55,12.23 L44.732,10.53 L42.705,11.344 L42.296,10.893 C42.0249951,10.5936158 41.723346,10.3234722 41.396,10.087 L40.904,9.731 L41.495,7.631 L39.718,7 L38.86,9.01 L38.252,8.979 C37.8475045,8.95897437 37.4420223,8.98075648 37.042,9.044 L36.442,9.144 L35.373,7.244 L33.667,8.06 L34.482,10.081 L34.03,10.488 C33.7302739,10.7592567 33.4594917,11.0608705 33.222,11.388 L32.668,12.244 L31.268,10.769 C31.342,10.683 32.338,9.712 32.415,9.63 L31.432,7.196 L36.091,4.969 L37.379,7.257 C37.491,7.249 37.605,7.243 37.719,7.239 L38.75,4.825 L43.623,6.535 L42.911,9.061 C42.998,9.135 43.083,9.21 43.166,9.288 L45.61,8.3 L47.843,12.946 L45.543,14.229 C45.552,14.342 45.557,14.455 45.561,14.568 L47.987,15.6 L46.273,20.46 L43.739,19.751 C43.666,19.837 43.59,19.922 43.512,20.004 L44.494,22.438 L41.333,24.078 L40.52,22.609 Z M36.769,18.2 C34.9995081,17.5846592 33.9962444,15.7165166 34.4605608,13.9015356 C34.9248772,12.0865546 36.7020079,10.9297047 38.5496132,11.2397056 C40.3972184,11.5497065 41.6994545,13.2232286 41.5459664,15.090362 C41.3924784,16.9574955 39.834427,18.3958872 37.961,18.4 C37.5552206,18.4011598 37.1521795,18.3335355 36.769,18.2 Z M36.215,14.2 C35.9444504,14.9619948 36.1983662,15.8114598 36.8427108,16.2999812 C37.4870555,16.7885026 38.3735287,16.8036438 39.0341809,16.3374122 C39.694833,15.8711805 39.9776105,15.0308824 39.7332412,14.2600926 C39.488872,13.4893028 38.7735994,12.9654239 37.965,12.965 C37.1784393,12.9627839 36.4764762,13.4581693 36.215,14.2 Z" id="Forma_1" fill="#C9D0DF"></path>
        </g>
    </g>
</svg>

<svg xmlns="http://www.w3.org/2000/svg" xmlns:xlink="http://www.w3.org/1999/xlink" viewBox="0 0 50 43">
  <defs>
    <style>
      .cls-1 {
        clip-path: url(#clip-Canvas);
      }

      .cls-2 {
        fill: #c9d0df;
      }

      .cls-3 {
        fill: rgba(0,0,0,0);
      }
    </style>
    <clipPath id="clip-Canvas">
      <rect width="50" height="43"/>
    </clipPath>
  </defs>
  <g id="Canvas" class="cls-1">
    <rect class="cls-3" width="50" height="43"/>
    <path id="Forma_1" data-name="Forma 1" class="cls-2" d="M24.651,16.581,2,40,24.651,4,47.138,40Zm-10.2,15.9,3.619-3.757H31.178l3.62,3.757Zm6.2-6.372,4-4.03,3.949,4.03Zm19.869-3.5,1.746-1.035-.815-2.021.452-.408a5.851,5.851,0,0,0,.808-.9l.357-.491,2.1.59.628-1.78-2.011-.854.03-.606a5.814,5.814,0,0,0-.065-1.208l-.1-.6,1.9-1.066-.818-1.7-2.027.814-.409-.451a5.777,5.777,0,0,0-.9-.806l-.492-.356.591-2.1L39.718,7,38.86,9.01l-.608-.031a5.885,5.885,0,0,0-1.21.065l-.6.1-1.069-1.9-1.706.816.815,2.021-.452.407a5.846,5.846,0,0,0-.808.9l-.554.856-1.4-1.475c.074-.086,1.07-1.057,1.147-1.139l-.983-2.434,4.659-2.227,1.288,2.288c.112-.008.226-.014.34-.018l1.031-2.414,4.873,1.71-.712,2.526c.087.074.172.149.255.227L45.61,8.3l2.233,4.646-2.3,1.283c.009.113.014.226.018.339L47.987,15.6,46.273,20.46l-2.534-.709c-.073.086-.149.171-.227.253l.982,2.434-3.161,1.64ZM36.769,18.2a3.605,3.605,0,1,1,1.192.2A3.591,3.591,0,0,1,36.769,18.2Zm-.554-4a1.856,1.856,0,1,0,1.75-1.235A1.85,1.85,0,0,0,36.215,14.2Z"/>
  </g>
</svg>
